X: 6
T: The Irish Rover
R: barndance
M: 4/4
L: 1/8
K: Dmaj
FE |D2 F>G A2 de | f2 ec d2 cB | A2 BA F2 GF | E2 E>E E2 A/G/F/E/ |
D2 E/F/G A2- Ad/e/ | fg/f/ ec d2 cB | A2 c>d e2 cA | d2 d>d d2 ||
A/B/c/d/ |f2 de fg/f/ df | e2 ec A2- AB/c/ | d2 de f2 df | e2 cB A2 A/G/F/E/ |
D2 FG A2 de | fA eA d2- dc/B/ | A>A B/c/d e2 cA | d2 d>d d2 |]


Tune 4786	Setting 28907

